X:41
T:Hessian Dance. JBi.41
T:Hessianâ€™s Camp,The,aka. JBi.41
M:3/8
L:1/8
Q:3/8=60
S:James Biggins MS, Leeds, 1779.
R:.Misc.
O:England
A:Yorkshire
N:Vickers has the same tune in a 6/8 setting, suggesting that a good
N:look
N:might be had at some otherwise innocent looking 6/8 tunes, to see if
N:they might work as brisk 3/8 waltzes.CGP.
Z:vmp.Nick Barber & Chris Partington
K:G
[V:1]|:gdB|G/F/G/A/ G|DEF|G/F/G/A/ G|gdB|G/F/G/A/ G|DEF|G3:|!
[V:2]|:G,G,G,|G,G,,G,,|B,,C,D,|G,,2z|G,G,G,|G,G,,G,,|B,,C,D,|G,,3:|!
%
[V:1]|:def|g2e|f/a/g/f/e/d/|e/g/f/e/d/^c/|def|g2c|BA/G/A/F/|G3:|!
[V:2]|:z3|z3|D,E,F,|G,2E,|F,/A,/G,/F,/E,/D,/|E,E,G,|G,D,D,,|G,,3:|!
%
[V:1]|:d2e|B2c |AGF|GDg|d2e|B2c|AGF|G3:|
[V:2]|:z2G,|D,2E,|C,D,D,,|G,,3|z2G,|D,2E,|C,D,D,,|G,,3:|

